X:1
T: Doctor Owl's Jig
C:Gordy Euler
R:Jig
Q: 180
K:A
M:6/8
L:1/16
|:A,2C2E2 A2G2A2|B2A2B2 c2B2A2|F2G2A2 E2G2A2|D2F2D2 B,2A,2G,2|
A,2C2E2 A2G2A2|B2A2B2 c2d2e2|f2d2B2 c2d2c2|B2A2G2 A6:|
|:g2f2g2 a4a2|e2g2b2 a4a2|a2f2d2 c2B2A2|G2A2B2 B6|
g2f2g2 a4c2|d2f2d2 B4e2|e2c2A2 c2B2A2|B2A2G2 A6:|
